public/images/icons/About-us.svg

<svg width="63" height="47" viewBox="0 0 63 47" fill="none" xmlns="http://www.w3.org/2000/svg">
<path d="M29.2325 9.85076L31.6916 15.1473L33.8269 9.71211C35.9944 4.19489 42.4164 1.65702 48.9007 2.73996C55.2611 3.80221 60.5 8.16839 60.5 15.298C60.5 22.9229 55.5219 30.1642 49.012 35.6618C45.8004 38.374 42.327 40.562 39.1511 42.062C35.9145 43.5906 33.2128 44.298 31.5 44.298C29.7872 44.298 27.0856 43.5906 23.8489 42.062C20.673 40.562 17.1996 38.374 13.988 35.6618C7.47808 30.1642 2.5 22.9229 2.5 15.298C2.5 8.10871 7.56016 3.78767 13.7314 2.73877C20.0142 1.67092 26.5854 4.14926 29.2325 9.85076Z" stroke="#5B5B5B" stroke-width="5"/>
</svg>

<svg xmlns="http://www.w3.org/2000/svg" width="63" height="47" fill="none"  xmlns:v="https://vecta.io/nano"><path d="M29.233 9.851l2.459 5.297 2.135-5.435c2.167-5.517 8.59-8.055 15.074-6.972C55.261 3.802 60.5 8.168 60.5 15.298c0 7.625-4.978 14.866-11.488 20.364-3.212 2.712-6.685 4.9-9.861 6.4-3.237 1.529-5.938 2.236-7.651 2.236s-4.414-.707-7.651-2.236c-3.176-1.5-6.649-3.688-9.861-6.4C7.478 30.164 2.5 22.923 2.5 15.298c0-7.189 5.06-11.51 11.231-12.559 6.283-1.068 12.854 1.41 15.501 7.112z" stroke="#5b5b5b" stroke-width="5"/></svg>
